packages/axiom-materials/src/icon_svgs/customise.svg

<?xml version="1.0" encoding="UTF-8"?>
<svg width="16px" height="16px" viewBox="0 0 16 16" version="1.1" xmlns="http://www.w3.org/2000/svg" xmlns:xlink="http://www.w3.org/1999/xlink">
    <!-- Generator: sketchtool 43.2 (39069) - http://www.bohemiancoding.com/sketch -->
    <title>customise</title>
    <desc>Created with sketchtool.</desc>
    <defs></defs>
    <g id="Page-1" stroke="none" stroke-width="1" fill="none" fill-rule="evenodd">
        <g id="customise" fill="#000000">
            <path d="M12.2575,5.3125 C12.4325,5.3675 12.6235,5.3205 12.7525,5.1905 L14.3125,3.6315 C14.4035,3.9175 14.4655,4.2175 14.4655,4.5345 C14.4655,6.1915 13.1225,7.5345 11.4655,7.5345 C11.1495,7.5345 10.8495,7.4715 10.5635,7.3805 L7.3595,10.5845 C7.4375,10.8525 7.4925,11.1305 7.4925,11.4235 C7.4925,13.0815 6.1505,14.4235 4.4925,14.4235 C4.1765,14.4235 3.8765,14.3615 3.5905,14.2705 L5.1565,12.7045 C5.2815,12.5785 5.3305,12.3945 5.2825,12.2235 L5.0255,11.2965 C4.9805,11.1365 4.8575,11.0095 4.6985,10.9595 L3.7005,10.6465 C3.5265,10.5905 3.3345,10.6375 3.2055,10.7675 L1.6465,12.3265 C1.5555,12.0405 1.4925,11.7405 1.4925,11.4235 C1.4925,9.7665 2.8355,8.4235 4.4925,8.4235 C4.8325,8.4235 5.1535,8.4935 5.4585,8.5965 L8.6185,5.4375 C8.5285,5.1505 8.4655,4.8515 8.4655,4.5345 C8.4655,2.8775 9.8085,1.5345 11.4655,1.5345 C11.7815,1.5345 12.0815,1.5965 12.3675,1.6875 L10.8015,3.2545 C10.6755,3.3795 10.6275,3.5635 10.6755,3.7345 L10.9335,4.6615 C10.9785,4.8225 11.1015,4.9495 11.2595,4.9995 L12.2575,5.3125 Z" id="Mask"></path>
        </g>
    </g>
</svg>

<svg height="16" viewBox="0 0 16 16" width="16" xmlns="http://www.w3.org/2000/svg"><path d="m12.2575 5.3125c.175.055.366.008.495-.122l1.56-1.559c.091.286.153.586.153.903 0 1.657-1.343 3-3 3-.316 0-.616-.063-.902-.154l-3.204 3.204c.078.268.133.546.133.839 0 1.658-1.342 3-3 3-.316 0-.616-.062-.902-.153l1.566-1.566c.125-.126.174-.31.126-.481l-.257-.927c-.045-.16-.168-.287-.327-.337l-.998-.313c-.174-.056-.366-.009-.495.121l-1.559 1.559c-.091-.286-.154-.586-.154-.903 0-1.657 1.343-3 3-3 .34 0 .661.07.966.173l3.16-3.159c-.09-.287-.153-.586-.153-.903 0-1.657 1.343-3 3-3 .316 0 .616.062.902.153l-1.566 1.567c-.126.125-.174.309-.126.48l.258.927c.045.161.168.288.326.338z" fill-rule="evenodd"/></svg>
